icons/mobile/24/svg/football-24.svg

<svg width="24" height="24" viewBox="0 0 24 24" fill="none" xmlns="http://www.w3.org/2000/svg">
<path d="M15.499 10.7393L10.7393 15.499L9.50098 14.2617L14.2617 9.50098L15.499 10.7393Z" fill="black"/>
<path fill-rule="evenodd" clip-rule="evenodd" d="M18.125 3C20.2652 3 22 4.73475 22 6.875V9.8916C22 16.5789 16.5789 22 9.8916 22H6.875C4.73475 22 3 20.2652 3 18.125V15.1084C3 8.42115 8.42115 3 15.1084 3H18.125ZM4.75 18.125C4.75 19.2988 5.70125 20.25 6.875 20.25H9.35645L4.75 15.6436V18.125ZM13.4941 4.875C9.12332 5.55897 5.66051 8.97646 4.90527 13.3232L11.6748 20.0938C16.023 19.339 19.4406 15.8761 20.124 11.5039L13.4941 4.875ZM20.25 9.1543V6.875C20.25 5.70125 19.2988 4.75 18.125 4.75H15.8457L20.25 9.1543Z" fill="black"/>
</svg>

<!-- This Source Code Form is subject to the terms of the Mozilla Public
   - License, v. 2.0. If a copy of the MPL was not distributed with this
   - file, You can obtain one at http://mozilla.org/MPL/2.0/. -->
<svg xmlns="http://www.w3.org/2000/svg" width="24" height="24" fill="none" viewBox="0 0 24 24">
    <path fill="#000" d="m15.499 10.74-4.76 4.759-1.238-1.237 4.76-4.761z" />
    <path fill="#000" fill-rule="evenodd" d="M18.125 3A3.875 3.875 0 0 1 22 6.875v3.017C22 16.579 16.579 22 9.892 22H6.875A3.875 3.875 0 0 1 3 18.125v-3.017C3 8.421 8.421 3 15.108 3zM4.75 18.125c0 1.174.951 2.125 2.125 2.125h2.481L4.75 15.644zm8.744-13.25a10.365 10.365 0 0 0-8.589 8.448l6.77 6.77a10.36 10.36 0 0 0 8.449-8.59zm6.756 4.28v-2.28a2.125 2.125 0 0 0-2.125-2.125h-2.28z" clip-rule="evenodd" />
</svg>
